ir/filter-alt.svg

<svg stroke-width="1.5" viewBox="0 0 24 24" fill="none" xmlns="http://www.w3.org/2000/svg" height="1em" width="1em">
  <path d="M2.99997 7V4C2.99997 3.44772 3.44769 3 3.99997 3H20.0001C20.5523 3 21 3.44766 21.0001 3.9999L21.0004 7M2.99997 7L9.65077 12.7007C9.87241 12.8907 9.99998 13.168 9.99998 13.4599V19.7192C9.99998 20.3698 10.6114 20.8472 11.2425 20.6894L13.2425 20.1894C13.6877 20.0781 14 19.6781 14 19.2192V13.46C14 13.168 14.1275 12.8907 14.3492 12.7007L21.0004 7M2.99997 7H21.0004" stroke="currentColor" stroke-linecap="round" stroke-linejoin="round"/>
</svg>

<svg stroke-width="1.5" viewBox="0 0 24 24" fill="none" xmlns="http://www.w3.org/2000/svg" height="1em" width="1em">
  <path d="M3 7V4a1 1 0 0 1 1-1h16a1 1 0 0 1 1 1v3M3 7l6.65 5.7a1 1 0 0 1 .35.76v6.26a1 1 0 0 0 1.242.97l2-.5a1 1 0 0 0 .758-.97v-5.76a1 1 0 0 1 .35-.76L21 7M3 7h18" stroke="currentColor" stroke-linecap="round" stroke-linejoin="round"/>
</svg>
